X:1
T:Title
%%score { ( 1 3 5 ) | ( 2 4 ) }
L:1/8
Q:1/4=92
M:6/8
K:G
V:1 treble nm="Grand Piano"
V:3 treble 
V:5 treble 
V:2 bass 
V:4 bass 
V:1
 [B,B]>DD [B,B]>DD | B2 _B .=B3 | D>EF G>AG | G2 F .F3 | c>c[Fc] [Fc][Fc][Fc] | %5
w: J.~Howard~Entwisle * * * * *|||||
 [EFc]2 [DFB] .[CFA]3 | [Fd]>[Fd][Fd] [Gd]>[Gd][Gd] | [Ad]2 [Ac] B2 F, | .e6 | [Bd]3 z3 | .d6 | %11
w: ||||||
 [Ac]3 z3 | [EA]3 [Ge]3[K:bass] | .d6 | A2 A B2 A | [B,G]6 |] %16
w: |||||
V:2
 [G,,D,]>D,D, [G,,D,]>D,D, | [G,D]2 [G,^C] .[G,D]3 | [G,B,]>[G,B,D][G,B,D] [G,B,D]>[G,B,D][G,B,D] | %3
 [A,CD]2 [A,CD] .[A,CD]3 | [D,F,D]>[D,F,D][D,A,] [D,C][D,C][D,A,] | D,2 D, .D,3 | %6
 [D,A,]>[D,A,][D,A,] [E,A,]>[E,A,][E,A,] | [F,D]2 [F,D] .[G,DG]3 | [E,D]2 E, z[K:treble] BE, | %9
 ^G,2 G, [A,EA]2[K:bass] A, | [D,C]2 D, z AD, | F,2 F,[K:treble] [G,DG]2 G, | C,2 C, .[^C,_B,]3 | %13
 [D,B,]2 D, B,A,[D,G,D] | [D,F,D]2 [D,F,C] [D,F,D]2 [D,C] | [G,,D,]6 |] %16
V:3
 x6 | x6 | x6 | x6 | x6 | x6 | x6 | x6 | ^G2- [B,G-] [EG]2 [EGd] | E2 E c2 E | %10
 F2- [A,F-] [DF]2 [DFc] | D2 D B2 D | C2 C z2[K:bass] [^C,_B,] | G2- [B,G] z cB | x6 | x6 |] %16
V:4
 x6 | x6 | x6 | x6 | x6 | x6 | x6 | x6 | z3 .E,3[K:treble] | x5[K:bass] x | z3 .D,3 | %11
 x3[K:treble] x3 | x6 | z3 .D,3 | x6 | x6 |] %16
V:5
 x6 | x6 | x6 | x6 | x6 | x6 | x6 | x6 | x6 | x6 | x6 | x6 | x5[K:bass] x | z3 .D3 | x6 | x6 |] %16

